X: 36919
T: Shooting Star, The
R: reel
M: 4/4
K: Dmajor
|:F2 FE FDDE|FAEF D2 DE|FBBA BAFB|ABdf edBA|
F2 FE FDDE|FAEF D2 DE|FBBA BAFB|AFEF D2 DE:|
|:FADF Adfa|bafe dBBA|Beed efed|Beef edBA|
FADF Adfa|bafe dBBA|BdAB FAEF|1 DB,A,B, D2 DE:|2 DB,A,B, D3 z||

